X: 4
T: Rosin The Bow
R: jig
M: 6/8
L: 1/8
K: Amaj
E|ABA cBA|f3 a2f|ecA ABc|(F3F2)E|
ABA cBA|f3 a2f|ecA BAB|(A3A2)||
c/d/|ece efg|a2f a2f|ecA ABc|(F3 F2)E|
ABA cBA|f3 a2f|ecA BAB|(A3 A2)||


Tune 7639	Setting 19052

